X:8245
T:Jolly Seven, The
R:reel
H:Belongs to the "Highlander Kissed His Granny" family.
H:Other related tunes are "John Stenson's #1" #392
H:"The Gravel Walks" #60, "The Highlandman That Kissed His Granny" #567,
H:"The Highlandman" highland#10
Z:id:hn-reel-559
M:C|
K:Ador
cAeA cAeA|cAeA BAGB|1 cBAB cdef|gfge dBGB:|2 cBAG ABcd|e=fed cAAB||
|:c2ec gcec|c2ec dBGB|1 c2ec gcef|gfge dBGB:|2 cBAG ABcd|e=fed cAAB||
